X:12
T:Wohlfahrt 12
C:Franz Wohlfahrt / K.H. Aiquoni
L:1/8
Q:1/4=100
M:4/4
I:linebreak $
K:C
"C" cded cEFA | GAGE CEGc |"F" ABcA FEFA |"C" GAGE CG,CE |$"G7" GFDB, G,B,DF |"C" AGEC G,CDE | 
"G7" GFDB, G,B,DF |"C" AGEC G,CEG |$"C" cded cE"E7"^F^G |"Am" ABcB Acea |"G7" bgdB"D7" dcA^F | 
"G7" AGDB, G,GAB |$"C" cded cEFA | GAGE CEGc |"F" ABcA FAcf |"C" agec GBcd |$"E7" edB^G Ee^f^g | 
"Am" baec ABcd |"E7" edB^G Ee^f^g |"Am" baec ABcd |$"E7" edcB"Am" cAcd |"E7" edcB"Am" cAcd | 
"C?" edcB"D7" c^fba |"G" g^faf"D7" dcBA |$"G" GABA GB,CE | DEDB, G,B,DG |"C" E^FGE CEGc | 
"G" BedB GDGB |$"D7" BcA^F Dde^f |"G" agdB GDGB |"D7" dcA^F Dde^f |"G" agdB"G7" GDE=F |$ 
"C" EFGE CEGc |"F" ABcA FEFA |"C" Gcea"G7" gfdB |"C" dcGE C2 z2 |] 



